!!!COM: Arthur Honegger
!!!OTL: [T607_Hon-w35p32-33h5m1-15]
**kern	**dynam	**kern	**dynam	**kern	**dynam	**kern	**dynam	**kern	**dynam
*part5	*part5	*part4	*part4	*part3	*part3	*part2	*part2	*part1	*part1
*staff5	*	*staff4	*	*staff3	*	*staff2	*	*staff1	*
*I"Contrabass	*	*I"Violoncello	*	*I"Viola	*	*I"Violin II	*	*I"Violin I	*
*I'Cb.	*	*I'Vc.	*	*I'Vla.	*	*I'Vln. II	*	*I'Vln. I	*
!!pagebreak:original
*clefF4	*	*clefF4	*	*clefC3	*	*clefG2	*	*clefG2	*
*Trd0c0	*	*	*	*	*	*	*	*	*
*k[]	*	*k[]	*	*k[]	*	*k[]	*	*k[]	*
*C:	*	*C:	*	*C:	*	*C:	*	*C:	*
*M6/8	*	*M6/8	*	*M6/8	*	*M6/8	*	*M6/8	*
=1	=1	=1	=1	=1	=1	=1	=1	=1	=1
*	*	*	*	*	*	*tremolo	*	*	*
!	!	!	!	!	!	!	!	!LO:TX:t=[quarter-dot]=100	!
!LO:TX:b:t=[f]	!	!LO:TX:b:t=[f]	!	!LO:TX:b:t=[f]	!	!LO:TX:b:t=[f]	!	!LO:TX:b:t=[f]	!
8A#XL	.	8BB-X^L 8G	.	8c#X^L 8en	.	16GLL	.	8f^L	.
.	.	.	.	.	.	16G	.	.	.
!	!	!LO:TX:a:t=Tutti	!	!	!	!	!	!	!
8c#XJ	.	8C#X^J	.	8c#^J 8e	.	16G#X	.	8f^J	.
.	.	.	.	.	.	16G#X	.	.	.
8r	.	8r	.	8r	.	16A	.	8r	.
.	.	.	.	.	.	16AJJ	.	.	.
!LO:TX:a:t=pizz.	!	!	!	!LO:TX:a:t=Div. en 3	!	!	!	!	!
!LO:TX:b:i:t=dimin.	!	!LO:TX:b:i:t=dimin.	!	!LO:TX:b:i:t=dimin.	!	!LO:TX:b:i:t=dimin.	!	!	!
4r	.	4r	.	4r	.	16c#XLL	.	4r	.
.	.	.	.	.	.	16c#X	.	.	.
.	.	.	.	.	.	16e	.	.	.
.	.	.	.	.	.	16e	.	.	.
8GG#XL	.	8GG#XL	.	8A-XL 8e 8fn	.	16fn	.	8r	.
.	.	.	.	.	.	16fnJJ	.	.	.
=2	=2	=2	=2	=2	=2	=2	=2	=2	=2
8DnJ	.	8DnJ	.	8AJ 8e 8f	.	16eLL	.	4%3r	.
.	.	.	.	.	.	16e	.	.	.
8r	.	8r	.	8r	.	16c#X	.	.	.
.	.	.	.	.	.	16c#X	.	.	.
8r	.	8r	.	8r	.	16A	.	.	.
.	.	.	.	.	.	16AJJ	.	.	.
8r	.	8r	.	8r	.	16G#XLL	.	.	.
.	.	.	.	.	.	16G#X	.	.	.
8FF#XL	.	8FF#XL	.	8G#XL 8A 8c#X	.	16F##X	.	.	.
.	.	.	.	.	.	16F##X	.	.	.
8EJ	.	8EJ	.	8G#J 8A 8c#	.	16G#	.	.	.
.	.	.	.	.	.	16G#JJ	.	.	.
=3	=3	=3	=3	=3	=3	=3	=3	=3	=3
4r	.	4r	.	4r	.	16ALL	.	4%3r	.
.	.	.	.	.	.	16A	.	.	.
.	.	.	.	.	.	16c#X	.	.	.
.	.	.	.	.	.	16c#X	.	.	.
8r	.	8r	.	8r	.	16e	.	.	.
.	.	.	.	.	.	16eJJ	.	.	.
!	!	!LO:TX:a:t=pizz.	!	!	!	!	!	!	!
8AA#XL	.	8AA#XL	.	8c#XL 8e 8fn	.	16fnLL	.	.	.
.	.	.	.	.	.	16fn	.	.	.
8C#XJ	.	8C#XJ	.	8c#J 8e 8f	.	16e	.	.	.
.	.	.	.	.	.	16e	.	.	.
8r	.	8r	.	8r	.	16c#	.	.	.
.	.	.	.	.	.	16c#JJ	.	.	.
=4	=4	=4	=4	=4	=4	=4	=4	=4	=4
4r	.	4r	.	4r	.	16ALL	.	4%3r	.
.	.	.	.	.	.	16A	.	.	.
.	.	.	.	.	.	16G#X	.	.	.
.	.	.	.	.	.	16G#X	.	.	.
8GG#X	.	8GG#X	.	8G#X 8e 8f	.	16F##X	.	.	.
.	.	.	.	.	.	16F##XJJ	.	.	.
8Dn	.	8Dn	.	8G# 8e 8f	.	16G#LL	.	.	.
.	.	.	.	.	.	16G#	.	.	.
8r	.	8r	.	8r	.	16A	.	.	.
.	.	.	.	.	.	16A	.	.	.
8r	.	8r	.	8r	.	16c#X	.	.	.
.	.	.	.	.	.	16c#XJJ	.	.	.
=5	=5	=5	=5	=5	=5	=5	=5	=5	=5
8r	.	8r	.	8r	.	16eLL	p	(2.ee	p
.	.	.	.	.	.	16e	.	.	.
8FF#XL	p	8FF#XL	p	8G#XL 8A 8c#X	p	16f	.	.	.
.	.	.	.	.	.	16f	.	.	.
8EJ	.	8EJ	.	8G#J 8A 8c#	.	16e	.	.	.
.	.	.	.	.	.	16eJJ	.	.	.
4r	.	4r	.	4r	.	16c#XLL	.	.	.
.	.	.	.	.	.	16c#X	.	.	.
.	.	.	.	.	.	16A	.	.	.
.	.	.	.	.	.	16A	.	.	.
8r	.	8r	.	8r	.	16G#X	.	.	.
.	.	.	.	.	.	16G#XJJ	.	.	.
!!linebreak:original
=6	=6	=6	=6	=6	=6	=6	=6	=6	=6
8AA#XL	.	8AA#XL	.	8c#XL 8e 8fn	.	16F##XLL	.	[2.cc#X)	.
.	.	.	.	.	.	16F##X	.	.	.
8C#XJ	.	8C#XJ	.	8c#J 8e 8f	.	16G#X	.	.	.
.	.	.	.	.	.	16G#X	.	.	.
8r	.	8r	.	8r	.	16A	.	.	.
.	.	.	.	.	.	16AJJ	.	.	.
4r	.	4r	.	4r	.	16c#XLL	.	.	.
.	.	.	.	.	.	16c#X	.	.	.
.	.	.	.	.	.	16e	.	.	.
.	.	.	.	.	.	16e	.	.	.
8GG#XL	.	8GG#XL	.	8G#XL 8e 8f	.	16fn	.	.	.
.	.	.	.	.	.	16fnJJ	.	.	.
=7	=7	=7	=7	=7	=7	=7	=7	=7	=7
8DnJ	.	8DnJ	.	8G#XJ 8e 8f	.	16eLL	.	(4.cc#]	.
.	.	.	.	.	.	16e	.	.	.
8r	.	8r	.	8r	.	16c#X	.	.	.
.	.	.	.	.	.	16c#X	.	.	.
8r	.	8r	.	8r	.	16A	.	.	.
.	.	.	.	.	.	16AJJ	.	.	.
8r	.	8r	.	8r	.	16G#XLL	.	4.ee	.
.	.	.	.	.	.	16G#X	.	.	.
8FF#XL	.	8FF#XL	.	8G#L 8A 8c#X	.	16F##X	.	.	.
.	.	.	.	.	.	16F##X	.	.	.
8EJ	.	8EJ	.	8G#J 8A 8c#	.	16G#	.	.	.
.	.	.	.	.	.	16G#JJ	.	.	.
=8	=8	=8	=8	=8	=8	=8	=8	=8	=8
4r	.	4r	.	4r	.	16ALL	.	([4.cc#X)	.
.	.	.	.	.	.	16A	.	.	.
.	.	.	.	.	.	16c#X	.	.	.
.	.	.	.	.	.	16c#X	.	.	.
8r	.	8r	.	8r	.	16e	.	.	.
.	.	.	.	.	.	16eJJ	.	.	.
8AA#XL	.	8AA#XL	.	8c#XL 8e 8fn	.	16fLL	.	4cc#]	.
.	.	.	.	.	.	16f	.	.	.
8C#XJ	.	8C#XJ	.	8c#J 8e 8f	.	16e	.	.	.
.	.	.	.	.	.	16e	.	.	.
8r	.	8r	.	8r	.	16c#	.	8ee)	.
.	.	.	.	.	.	16c#JJ	.	.	.
=9	=9	=9	=9	=9	=9	=9	=9	=9	=9
4r	.	4r	.	4r	.	16ALL	.	([4.ffn	.
.	.	.	.	.	.	16A	.	.	.
.	.	.	.	.	.	16G#X	.	.	.
.	.	.	.	.	.	16G#X	.	.	.
8GG#X	.	8GG#X	.	8G#X 8e 8fn	.	16F##X	.	.	.
.	.	.	.	.	.	16F##XJJ	.	.	.
8D	.	8D	.	8G# 8e 8f	.	16G#LL	.	4ff]	.
.	.	.	.	.	.	16G#	.	.	.
8r	.	8r	.	8r	.	16A	.	.	.
.	.	.	.	.	.	16A	.	.	.
8r	.	8r	.	8r	.	16c#X	.	8ggn)	.
.	.	.	.	.	.	16c#XJJ	.	.	.
=10	=10	=10	=10	=10	=10	=10	=10	=10	=10
8r	.	8r	.	8r	.	16eLL	.	(4.aa-X	.
.	.	.	.	.	.	16e	.	.	.
8FF#XL	.	8FF#XL	.	8G#XL 8A 8c#X	.	16f	.	.	.
.	.	.	.	.	.	16f	.	.	.
8EJ	.	8EJ	.	8G#J 8A 8c#	.	16e	.	.	.
.	.	.	.	.	.	16eJJ	.	.	.
4r	.	4r	.	4r	.	16c#XLL	.	4.gg	.
.	.	.	.	.	.	16c#X	.	.	.
.	.	.	.	.	.	16A	.	.	.
.	.	.	.	.	.	16A	.	.	.
8r	.	8r	.	8r	.	16G#X	.	.	.
.	.	.	.	.	.	16G#XJJ	.	.	.
!!linebreak:original
=11	=11	=11	=11	=11	=11	=11	=11	=11	=11
8AA#XL	.	8AA#XL	.	8c#XL 8e 8fn	.	16F##XLL	.	4.gg#X	.
.	.	.	.	.	.	16F##X	.	.	.
8C#XJ	.	8C#XJ	.	8c#J 8e 8f	.	16G#X	.	.	.
.	.	.	.	.	.	16G#X	.	.	.
8r	.	8r	.	8r	.	16A	.	.	.
.	.	.	.	.	.	16AJJ	.	.	.
4r	.	4r	.	4r	.	16c#XLL	.	4.aan	.
.	.	.	.	.	.	16c#X	.	.	.
.	.	.	.	.	.	16e	.	.	.
.	.	.	.	.	.	16e	.	.	.
8GG#XL	.	8GG#XL	.	8G#XL 8e 8f	.	16fn	.	.	.
.	.	.	.	.	.	16fnJJ	.	.	.
=12	=12	=12	=12	=12	=12	=12	=12	=12	=12
8DJ	.	8DJ	.	8G#XJ 8e 8f	.	16eLL	.	[2.ccc#X)	.
.	.	.	.	.	.	16e	.	.	.
8r	.	8r	.	8r	.	16c#X	.	.	.
.	.	.	.	.	.	16c#X	.	.	.
8r	.	8r	.	8r	.	16A	.	.	.
.	.	.	.	.	.	16AJJ	.	.	.
8r	.	8r	.	8r	.	16G#XLL	.	.	.
.	.	.	.	.	.	16G#X	.	.	.
8FF#XL	.	8FF#XL	.	8G#L 8A 8c#X	.	16F##X	.	.	.
.	.	.	.	.	.	16F##X	.	.	.
8EJ	.	8EJ	.	8G#J 8A 8c#	.	16G#	.	.	.
.	.	.	.	.	.	16G#JJ	.	.	.
=13	=13	=13	=13	=13	=13	=13	=13	=13	=13
4r	.	4r	.	4r	.	16ALL	.	4.ccc#]	.
.	.	.	.	.	.	16A	.	.	.
.	.	.	.	.	.	16c#X	.	.	.
.	.	.	.	.	.	16c#X	.	.	.
8r	.	8r	.	8r	.	16e	.	.	.
.	.	.	.	.	.	16eJJ	.	.	.
8AA#XL	.	8AA#XL	.	8c#XL 8e 8fn	.	16fLL	.	(4.ccc#X	.
.	.	.	.	.	.	16f	.	.	.
8C#XJ	.	8C#XJ	.	8c#J 8e 8f	.	16e	.	.	.
.	.	.	.	.	.	16e	.	.	.
8r	.	8r	.	8r	.	16c#	.	.	.
.	.	.	.	.	.	16c#JJ	.	.	.
=14	=14	=14	=14	=14	=14	=14	=14	=14	=14
4r	.	4r	.	4r	.	16ALL	.	4.ddd	.
.	.	.	.	.	.	16A	.	.	.
.	.	.	.	.	.	16G#X	.	.	.
.	.	.	.	.	.	16G#X	.	.	.
8GG#X	.	8GG#X	.	8G#X 8e 8f	.	16F##X	.	.	.
.	.	.	.	.	.	16F##XJJ	.	.	.
8D	.	8D	.	8G# 8e 8f	.	16G#LL	.	4.ccc#X	.
.	.	.	.	.	.	16G#	.	.	.
8r	.	8r	.	8r	.	16A	.	.	.
.	.	.	.	.	.	16A	.	.	.
8r	.	8r	.	8r	.	16c#X	.	.	.
.	.	.	.	.	.	16c#XJJ	.	.	.
=15	=15	=15	=15	=15	=15	=15	=15	=15	=15
8r	.	8r	.	8r	.	16eLL	.	4.bb#X	.
.	.	.	.	.	.	16e	.	.	.
8FF#XL	.	8FF#XL	.	8G#XL 8A 8c#X	.	16fn	.	.	.
.	.	.	.	.	.	16fn	.	.	.
8EJ	.	8EJ	.	8G#J 8A 8c#	.	16e	.	.	.
.	.	.	.	.	.	16eJJ	.	.	.
4r	.	4r	.	4r	.	16c#XLL	.	4.ccc)	.
.	.	.	.	.	.	16c#X	.	.	.
.	.	.	.	.	.	16A	.	.	.
.	.	.	.	.	.	16A	.	.	.
8r	.	8r	.	8r	.	16G#X	.	.	.
.	.	.	.	.	.	16G#XJJ	.	.	.
*	*	*	*	*	*	*Xtremolo	*	*	*
=	=	=	=	=	=	=	=	=	=
*-	*-	*-	*-	*-	*-	*-	*-	*-	*-
!!!system-decoration: s1,s2,s3,s4,s5
